X:8622
T:Cam ye oer frae France
C:anon.
O:England
R:Triple Hornpipe
Z:Transcribed by Phil Taylor
F:http://abc.musicaviva.com/tunes/england/cam-ye-oer-phil.abc
%Posted at abcusers July 21th 2002 by Phil Taylor
M:3/2
L:1/8
K:Am
c2A2A2 E2 A4 | c2A2A2c2 BcdB | \
c2A2A2 E2 A3c| B2G2 G2d2 BcdB:|
A2a2a2 a ^ga4 | e2a2a3b c'2a2|\
e2a2 bag^f g4| B2G2G2d2 BcdB:|
W:
W:
W:  From Musica Viva - http://www.musicaviva.com
W:  the Internet center for free sheet music downloads.



